X: 14907
T: Gather Ye Rosebuds
R: barndance
M: 4/4
K: Gmajor
d2 dd d3 c|B2 A>G G3 B|B3 A GA Bc|d2 d6||
A2 AB c3 d|e dc B2 c|d2 cB A3 G|G2 G6||

